X:243
T:Steirische Jodler und Taenze Nr. 1 - 48 (41.)
C:traditionell
A:Salzkammergut
S:MIDI erhalten von Christian Amon. Nach einer kopie im besitz von Johann Stoeckl eines manuscriptes. Stoeckl(zitiert von Amon): "diese sammlung wurde 1935 im hause der familie Hohenlohe-Schillingfuerst gefunden. Sie wurde von einem der beiden brueder Steinegger 1866 verfasst. Die originale sind im Ausseer Kammerhofmuseum".
M:3/4
L:1/8
K:G
V:1
Bd |\
A2 dfac | B2 dg b2 | c'afdce | B2 dgBd |\
A2 dfac | B2 dg b2 | c'afdcF | G4 |*
V:2
dg |\
d2 fac'e | d2 gb d'2 | e'c'afda | d2 gbdg |\
d2 fac'e | d2 gb d'2 | e'c'afeA | B4 |*
